X:1
T:Quando la voce
T:Quando la voce
T:Andreas Pevernage
T:Source: Harmonia celeste---Anversa---P.Phalesio & G.Bellero---1583. Editor: André Vierendeels (16/11/13).
T:Notes: Original clefs : G, C2, C3, F3 Editorial accidentals above the staff Dedicated to : "Al molto Magnifico S. CESARE HOMODEI"
T:b
T:b
C:Andreas Pevernage
%%score [ 1 2 [ 3 4 ] ]
L:1/8
Q:1/4=120
M:4/4
K:F
V:1 treble nm="Canto" snm="C"
V:2 treble nm="Alto" snm="A"
V:3 treble-8 nm="Tenor 1" snm="T 1"
V:4 treble-8 nm="Tenor 2" snm="T 2"
V:1
 z4 d4 | G2 d2 f4- | f2 ed c2 d2 | e2 f2 g2 d2 | d4 e2 e2- | e2 d2 c4 | =B4 z2 B2- | B2 B2 =B4 | %8
w: Quan-|do la vo-||* * * ce'al|dol- ce can-|* to muo-|ve HO-|* MO DEI|
 z2 c4 c2 | c4 c2 c2 | c3 c c2 B2 | A4 A4 | z2 A2 =B4 | c3 d c2 A2 | A4 A4 | z4 =B2 B2 | c4 c2 B2 | %17
w: HO- MO|DEI, con tal|gra- ti- a'e leg-|gia- dria,|con tal|gra- ti- a'e leg-|gia- dria,|o- gni|spir- to gen-|
 A4 A4 | =BA Bc d2 d2 | _e2 d3 c/B/ ^c2 | d4 z2 d2 | dc BA BA GF | GA Bc dc de | ^f2 g4 f2 | %24
w: til, o-|gni _ _ _ _ spir-|to gen- * * *|til, vo-|lan- * * * * * * *||do vi- *|
 g4 G3 A | B4 A3 B | c4 B3 c | d4 c3 d | e4 d3 e | f6 e2- | e2 d4 c2- | c2 B4 A2- | A2 G2 A4 | %33
w: a, se ne|va, se ne|va, se ne|va se ne|va, se ne|va col|_ suo suon'|_ in grem-|* bo'a Gio-|
 A2 f2 fe dc | dc BA B2 c2 | A4 =B4 | z2 B2 B2 A2 | A4 A2 A2- |"^-natural" A2 A2 c2 d2 | c4 =B4 | %40
w: ve, in grem- * * *|* * * * * bo'a|Gio- ve,|fe- li- ce|spir- to che|_ si al- te|pro- ve,|
 z2 d2 d2 d2 | ^c4 c2 c2- | c2 d2 e2 f2 | f4 d4 | c8- | c8 | =B4 z2 d2- | d2 f4 c2 | c2 e3 f g2 | %49
w: fe- li- ce|spir- to che|_ si al- te|pro- ve|mo-||stri, e|_ quan- to|cor- te- se'il ciel|
 g2 d3 c B2 | A2 ^F4 G2 | ^F2 F2 G3 A | Bc d4 c2 | d2 A2 d3 c | BA GA B2 B2 | A8 | A8 || %57
w: ti si- * *|a, e quan-|to cor- te- *|* * * se'il|ciel _ _ _|_ _ _ _ _ ti|si-|a.|
"^SECUNDA PARTE" d8 | d4 d4 | e4 f4 | d3 d d2 c2 | B4 A4- | A4 A4 | B4 =B4 | c4 c4 | B3 B B2 A2 | %66
w: Con|hu- mil|at- to|sta fa- ti- ca|mi- a,|_ con|hu- mil|at- to|sta fa- ti- ca|
 G4 ^F4 | A4 =B2 B2 | c4 d2 d2 | _e2 e2 d4 | d4 z2 d2 | c2 A2 B2 B2 | AG AB c4 | d2 d2 c2 A2 | %74
w: mi- a,|a te pre-|sen- to, a|te pre- sen-|to, e|con di- vo- to|cuo- * * * *|re, e con di-|
 B4 A2 f2 | e2 c2 d3 c/B/ | c2 d2 B4 | A8 | c4 c4 | B4 A4 | d4 c3 c | c2 =B2 c4 | c4 f4- | %83
w: vo- to, e|con di- vo _ _|_ to- cuo-|re,|il no-|me tuo|spe- ro con|gran- de'ho- no-|re, far|
 f2 f2 f4 | f2 f2 c4 | d6 d2 | d4 d4- | d2 d2 c4 | d4 _e4- | e2 d2 c4 | d2 d2 c2 c2 | B4 A3 A | %92
w: _ o- gn'hor|ri- suo- nar,|far o-|gn'hor ri-|* suo- nar,|dal Gan-|* ge'al Ti-|le, et con le|Mu- se'i- vi|
 G2 G2 A4 | B2 d2 c2 c2 | B4 A3 A | G2 G2 A4 | B2 B4 A2 | B3 B G4 | A2 A4 =B2 | c2 B2 A4 | %100
w: ra- gio- na-|re; et con le|Mu- se'i- vi|ra- gio- na-|re, i- vi|ra- gio- na-|re, che tu|le'a- mi'al mon-|
 A2 A4 G2 | ^F4 G4 | z2 A4 =B2 | c2 f2 f4 | f2 f4 d2 | d3 c de f2- | fe d3 c A2 | =B8 |] z8 |] %109
w: do, sen- za|pa- re,|che tu|le'a- mi'al mun-|do, sen- za|pa- * * * *||re.||
V:2
 G4 D2 G2 | B6 AG | F2 G2 A2 B2 | c4 B4 | B4 B2 B2- | B2 B2 G4 | G4 z2 G2- | G2 G2 G4 | z2 E4 E2 | %9
w: Quan- do la|vo- * *||* ce'al|dol- ce can-|* to muo-|ve, HO-|* MO DEI,|HO- MO|
 E4 G2 G2 | A3 G A2 G2 | ^F4 F4 | z2 ^F2 G4 | G3 G G2 F2 | E4 E4 | z4 G2 G2 | G4 A2 G2 | ^F6 F2 | %18
w: DEI, con tal|gra- ti- a'e leg-|gia- dria,|con tal|gra- ti- a'e leg-|gia- dria,|o- gni|spir- to gen-|til, o-|
"^#" GF GA =B2 B2 | c2 A2 A2 A2 | AG FE FEDC | D2 G2 G4 | D4 z2 B2 | A2 G2 A4 | D8 | D3 E F4 | %26
w: gni _ _ _ _ spir-|to gen- til vo-|lan- * * * * * * *|* do vi-|a, vo-|lan- do vi-|a,|se ne va,|
 E3 F G4 | F3 G A4 | G3 A B4 | A3 B c2 c2- | c2 B4 A2- | A2 G4 C2- | C2 D2 E4 | F4 A4 | %34
w: se ne va|se ne va,|se ne va,|se ne va col|_ suo suon'|_ in grem-|* bo'a Gio-|ve, in|
 BA GF G2 G2 | ^F4 G4 | z2 G2 G2 F2 | E4 E2 E2- | E2 ^F2 G2 B2 | A4 G4 | z2 B2 B2 A2 | A4 A2 A2- | %42
w: grem- * * * * bo'a|Gio- ve,|fe- li- ce|spir- to che|_ si al- te|pro- ve,|fe- li- ce|spir- to che|
 A2 A2 c2 d2 | c4 B4 | A8 | G8 |"^b" z2 G2 B4 | F2 F2 A3 B | c2 c2 G3 A | B3 A G4 | ^F2 A4 B2 | %51
w: _ si al- te|pro- ve|mo-|stri,|e quan-|to cor- te- se'il|ciel ti si- *||a, e quan-|
 A2 A2 D4 | D4 A3 A | ^F8 | G2 D2 G3 F | E2 F2 E4 | ^F8 || A8 | B4 =B4 | c4 c4 | B3 B B2 A2 | %61
w: to cor- te-|se'il ciel ti|si-|a, il ciel _|_ ti si-|a.|Con|hu- mil|at- to|sta fa- ti- ca|
 G4 ^F4 |"^-natural" z2 F2 F4 | F4 G4- | G4 A4 | F3 F F2 F2 | D4 D2 D2 | ^F4 G4 | A4 B2 A2 | %69
w: mi- a,|con hu-|mil at-|* to|sta fa- ti- ca|mi- a, a|te pre-|sen- to, a|
 c2 c2 A4 | B2 G2 F2 D2 | E2 F2 D4 | D4 z2 c2 | B2 G2 A4 | D4 z4 | G4 B2 B2 | A2 D2 G4 | C4 z2 A2 | %78
w: te pre- sen-|to, e con di-|vo- to cuo-|re, e|con di- vo-|to,|e con di-|vo- to cuo-|re, il|
 A4 G4 | F8 | B4 A3 A | A2 G2 A4 | A8 | A6 A2 | A4 A2 A2 | B8 | B6 B2 | B2 B4 A2 | B2 B4 c2- | %89
w: no- me|tuo|spe- ro con|gran- de'ho- no-|re,|far o-|gn'hor ri- suo-|nar,|far o-|gn'hor ri- suo-|nar, dal Gan-|
 c2 B2 A4 | B4 z2 F2 | F2 F2 F4 | D3 D F2 F2 | F4 C2 F2 | F2 F2 F4 | D3 D F2 F2 | F4 F2 F2 | %97
w: * ge'al Ti-|le, et|con le Mu-|se'i- vi ra- gio-|na- re, et|con le Mu-|se'i- vi ra- gio-|na- re, re-|
 G2 F3 E/D/ E2 | F2 F4 F2 | G2 F2 F4 | F2 F4 D2 | D4 D4 |"^-natural" z2 F4 ^F2 | G2 B2 A4 | %104
w: gio- na- * * *|re, che tu|le'a- mi'al mon-|do, sen- za|pa- re,|che tu|le'a- mi'al mun-|
 A2 A4 G2 | ^F3 E FG AB | AG G4 ^F2 | G8 |] z8 |] %109
w: do, sen- za|pa- * * * * *||re.||
V:3
 z8 | z8 | z8 | z4 g4 | f4 g2 g2- | g2 f2 _e4 | d2 d4 d2 | d4 z2 g2- | g2 g2 g4 | z2 g2 e4 | %10
w: |||Al-|dol- ce can-|* to muo-|ve, HO- MO|DEI, HO-|* MO DEI,|con tal|
 f3 e f2 g2 | d4 d4 | z2 d4 d2 | e3 d e2 d2 | ^c4 c4 | z4 d2 d2 | e4 f2 d2 | d4 d2 d2 | G4 g4- | %19
w: gra- ti- a'e leg-|gia- dria,|con tal|gra- ti- a'e leg-|gia- dria,|o- gni|spir- to gen-|til, o- hni|spir- to|
 g2 f3 e/d/ e2 | d8 | z2 d2 dc BA | BA GA BA Bc | d2 B2 A4 | G4 z4 | B3 c d4 | c3 d e4 | d3 e f4 | %28
w: _ gen- * * *|til,|vo- lan- * * *||* do vi-|a,|se ne va,|se ne va,|se ne va,|
 e3 f g4 | f3 g a4 | g6 e2 | fe dc d2 f2 | e2 d4 ^c2 | d4 z2 d2- | d2 _e4 c2 | d4 G4 | %36
w: se ne va,|se- ne va|col suo|suon' _ _ _ in grem-|bo'a Gio- *|ve, in|_ grem- bo'a|Gio- ve,|
 z2 d2 d2 d2 | ^c4 c2 c2- | c2 d2 e2 f2 | f4 d4 | z2 g2 g2 f2 | e4 e2 e2- | e2 f2 g2 b2 | %43
w: fe- li- ce|spir- to che|_ si al- te|pro- ve,|fe- li- ce|spir- to che|_ si al- te|
 a2 a2 g4- | g2 f2 f4- | f2 ed _e4 | d8 | d4 f4 | c2 c2 e3 f | g2 g2 d4 | d4 z2 G2 | d4 z2 G2 | %52
w: pro- v mo-|||stri,|e quan-|to cor- te- se'il|ciel ti si-|a il|ciel, il|
 g3 g e4 | d4 d4- | d2 g3 f ed | ^c2 d4 c2 | d8 || f8 | f4 g4 | g4 a4 | f3 f f2 f2 | d8 | d8 | %63
w: ciel ti si-|a, il|_ ciel _ _ _|_ ti si-|a.|Con|hu- mil|at- to|sta fa- ti- ca|mi-|a,|
 d4 d2 d2 | e4 f4 | d3 d d2 c2 | B4 A4 | z2 d2 d2 d2 | f4 f4 | z2 g2 ^f2 f2 | g4 d4 | z4 g4 | %72
w: con hu- mil|at- to|sta fa- ti- ca|mi- a,|a te pre-|sen- to,|a te pre-|sen- to,|e|
 f2 d2 e2 f2 | d4 ed ef | g2 g2 f2 d2 | e4 f2 g2- | gf f3 e/d/ e2 | f4 z2 f2 | f4 _e4 | d8 | %80
w: con di- vo- to|cuo- * * * *|re, e con di-|vo- to cuo-||re, il|no- me|tuo|
 B4 f3 f | f2 g2 f4- | f2 ed c4- | c4 c4 | z4 f4- | f2 f2 f4 | f2 f2 f4- | f2 f2 f4- | f4 g4 | %89
w: spe- ro con|gran- de'ho- no-||* re,|far|_ o- gn'hor|ri- suo- nar,|_ dal Gan-|* ge'al|
 f8- | f4 f4 | z2 d2 c2 c2 | =B4 c3 c | d2 d2 f4 | d2 d2 c2 c2 | =B4 c3 c | d6 c2 | B4 c4 | %98
w: Ti-|* le,|et con le|Mu- se'i- vi|ra- gio- na-|re, et con le|Mu- se'i- vi|ra- gio-|na- re,|
 z2 c4 d2 | _e2 d2 c4 | c2 c4 B2 | A4 =B4 | z2 c4 d2 | _e2 d2 c4 | c2 c4 B2 | A4 A2 d2- | %106
w: che tu|le'a- mi'al mon-|do, sen- za|pa- re,|che tu|le'a- mi'al mun-|do, sen- za|pa- re, sen-|
 d2 B2 A4 | G8 |] z8 |] %109
w: * za pa-|re.||
V:4
 z8 | z8 | z8 | z4 G4 | B4 _E2 E2- | E2 B2 c4 | G4 z2 G2- | G2 G2 G4 | z2 c4 c2 | c8 | z8 | z8 | %12
w: |||Al|dol- ce can-|* to muo-|ve, HO-|* MO DEI,|HO- MO|DEI|||
 d4 G4 | c3 B c2 d2 | A4 A4 | z4 G2 G2 | C4 F2 G2 | D4 z4 | d2 d2 G4 | c2 d2 A4 | z2 d2 dc BA | %21
w: con tal|gra- ti- a'e leg-|gia- dria,|o- gno|spir- to gen-|til,|o- gni spir-|to gen- til,|vo- lan- * * *|
 BA GF G4- | G4 G4 | D8 | G8 | z4 F3 G | A4 G3 A | B4 A3 B | c4 B3 c | d4 A3 B | c2 G4 A2 | %31
w: |* do|vi-|a,|se ne|va, se ne|va, se ne|va, se ne|va, se ne|va col suo|
 F2 G4 A2- | A2 B2 A4 | D8 | z8 | z8 | G4 G2 D2 | A4 A2 A2- |"^-natural" A2 d2 c2 B2 | F4 G4 | %40
w: suon' in grem-|* bo'a Gio-|ve,|||fe- li- ce|spir- to che|_ si al- te|pro- ve,|
 z2 G2 G2 D2 | A4 A2 A2- | A2 d2 c2 B2 | F4 G4 | A6 B2 | c8 | G4 G4 | B4 F2 F2 | A3 B c2 c2 | %49
w: fe- li- ce|spir- to che|_ si al- te|pro- ve|mo- *||stri, e|quan- to cor-|te- se'il ciel ti|
 G4 G4 | z2 D2 d4 | z2 D2 G4- | G2 G2 A4 | D4 z2 D2 | G6 G2 | A8 | D8 || d8 | B4 G4 | c4 F4 | %60
w: si- a,|il ciel,|il ciel|_ ti si-|a, il|ciel ti|si-|a.|Con|hu- mil|at- to|
 B3 B B2 F2 | G4 D4 | z4 d4 | B4 G4 | c4 F4 | B3 B B2 F2 | G4 D2 D2 | D2 D2 G4 | F2 F2 B2 d2 | %69
w: sta fa- ti- ca|mi- a,|con|hu- mil|at- to|sta fa- ti- ca|mi- a, a|te pre- sen-|to, a te pre-|
 c4 d4 | z2 G2 B2 B2 | c2 d2 G4 | D2 d2 c2 A2 | B4 A4 | GA Bc d4 | c2 c2 B2 G2 | A2 B2 G4 | F8 | %78
w: sen- to,|e con di-|vo- to cuo-|re, e con di-|vo- to|cuo- * * * *|re, e con di-|vo- to cuo-|re,|
 z8 | z8 | z8 | z8 | F6 F2 | F4 F2 F2 | F8 | B6 B2 | B4 B2 B2 | B4 F4 | B4 _E4 | F8 | %90
w: ||||far o-|gn'hor ri- suo-|nar,|far o-|gn'hor ri- suo-|nar dal|Gan- ge'al|Ti-|
 B,2 B2 A2 A2 | B4 F3 F | G2 G2 F4 | B,2 B2 A2 A2 | B4 F3 F | G2 G2 F4 | B,CDE F4 | z8 | F6 D2 | %99
w: le, et con le|Mu- se'i- vi|ra- gio- na-|re, et con le|Mu- se'i- vi|ra- gio- na-|* * * * re,||che tu|
 C2 D2 F4 |"^-natural" F2 F4 G2 | D4 G4 | z2 F4 D2 | C2 D2 F4 | F2 F4 G2 | D8- | D8 | G,8 |] z8 |] %109
w: le'a- mi'al mon-|do, sen- za|pa- re,|che tu|le'a- mi'al mun-|do, sen- za|pa-||re||

